epam-assets/icon-sources/18/internal-logo/documents.svg

<svg width="18" height="18" viewBox="0 0 18 18" fill="none" xmlns="http://www.w3.org/2000/svg">
<g id="18/internal-logo/documents">
<path id="icon" fill-rule="evenodd" clip-rule="evenodd" d="M9.00005 7.90809V2.25L3.17613 7.8765L3.15522 7.8713L3.14343 7.88249V7.90809V15.75H9.86782C12.6232 15.75 14.8567 13.5463 14.8567 10.8273V7.17271C14.8567 4.45423 12.6232 2.25 9.86782 2.25V2.25053H9.03629L9.78863 5.19869L10.0864 4.92147C11.2478 5.03049 12.1597 5.99848 12.1597 7.17271V10.8273C12.1597 12.0742 11.1315 13.0886 9.86782 13.0886H5.84037V9.00475L6.22583 8.63421L3.30327 7.90809H9.00005Z" fill="#6C6F80"/>
</g>
</svg>

<svg xmlns="http://www.w3.org/2000/svg" width="18" height="18" fill="none" viewBox="0 0 18 18">
  <path fill="#6C6F80" fill-rule="evenodd" d="M9 7.908V2.25L3.176 7.877l-.02-.006-.013.011v7.868h6.725c2.755 0 4.989-2.204 4.989-4.923V7.173c0-2.719-2.234-4.923-4.99-4.923h-.83l.751 2.95.297-.278c1.162.11 2.074 1.077 2.074 2.252v3.654c0 1.247-1.028 2.262-2.292 2.262H5.84V9.005l.386-.37-2.923-.727H9Z" clip-rule="evenodd"/>
</svg>
